src/assets/top/ShortHairShaggyMullet.svg

<svg width='280px' height='280px' viewBox='0 0 280 280' version='1.1' xmlns='http://www.w3.org/2000/svg'>
      <g id='Top' strokeWidth='1' fillRule='evenodd'>
        <defs>
          <rect id='path1' x='0' y='0' width='264' height='280' />
          <path
            d='M175.126419,166.897818 C175.841424,169.13759 176.874789,171.230601 178.55519,172.685954 C180.17619,174.090053 183.068114,173.745469 185.098621,173.802748 C186.770693,173.850632 188.444623,173.856087 190.114529,173.783655 C190.95366,173.747287 191.327571,174.79771 190.648775,175.281705 C190.518773,175.374442 190.388771,175.462634 190.25846,175.543856 C189.20761,176.198779 188.11838,176.802787 187.008721,177.356184 C184.485135,178.614206 181.821334,179.600077 179.02722,180.090436 C177.110792,180.426519 175.211229,180.489668 173.372596,180.266511 C173.858877,180.986862 174.419563,181.642356 175.071506,182.207788 C176.801481,183.708407 179.887821,183.340135 182.054832,183.401352 C183.839313,183.452528 185.625776,183.458358 187.407944,183.380946 C188.303488,183.342078 188.702535,184.464709 187.978106,184.981974 C187.839364,185.081086 187.700623,185.175341 187.561551,185.262145 C186.440057,185.962089 185.2776,186.607617 184.093342,187.199055 C181.400104,188.543555 178.557223,189.597195 175.57527,190.121262 C170.075488,191.087126 164.705859,189.943766 160.380755,186.413279 C159.16361,185.419765 158.027363,184.287616 157,183.053001 L157,180.610951 C163.949635,177.309539 170.111406,172.618864 175.126419,166.897818 Z M81.3150549,151.593977 C80.572738,153.13892 79.8051751,154.672522 79.0058562,156.190972 C74.2106831,165.300379 68.2421528,176.792949 56.4993303,177.596328 C55.4105393,177.670743 54.9804404,178.942941 55.8287461,179.588187 C66.9485528,188.041497 92.2609618,193.18734 101.273548,191.569729 C104.095212,191.063278 106.638877,190.402091 109,189.610443 L109,180.610951 C96.5625107,174.702544 86.6484598,164.344483 81.3150549,151.593977 Z M195.90592,68.6796644 C196.081329,74.1868816 195.28885,79.9070851 194.184533,85.2955724 C193.189889,90.1482867 189.869671,93.9714569 188.837367,98.7289227 C184.809898,85.0481908 169.433037,80.4838679 160.242068,71.1548033 C162.238626,74.9478777 165.29094,78.1026546 167.294435,81.8328914 C158.047309,76.1675881 149.087576,67.953725 145.262273,57.5379012 C144.554691,62.9359795 142.545911,67.9275978 139.15401,72.2035294 C136.142657,76.0002417 131.572444,80.0744315 126.858864,81.5445 C129.286511,76.0372828 131.361358,70.327001 133.266412,64.6190342 C131.249704,67.2357231 124.568637,78.352682 122.891185,81.1086057 C121.234875,83.8298033 119.37772,86.426318 117.383805,88.9120401 C116.450603,90.0751967 115.455298,91.1993278 114.453055,92.302954 C113.869349,92.9458816 113.274082,93.578226 112.665931,94.1980029 C112.450882,94.4169423 110.823641,96.2071517 111.753871,95.0036468 C109.537639,97.8062025 106.276221,99.9826977 103.44325,102.112561 C100.59079,104.256976 97.4833088,106.08125 94.2522818,107.589351 C87.0932166,110.931649 79.7402436,112.148383 71.9327267,110.752066 C73.127556,111.05104 75.6533133,109.906073 76.8887739,109.570058 C78.6980301,109.07761 80.3625987,108.452872 82.0017312,107.546357 C85.2753717,105.735312 88.3514706,103.576015 91.1778346,101.127995 C88.4707222,102.280238 86.2726593,104.461694 83.513684,105.671152 C81.2270908,106.673576 78.9669245,107.196782 76.4817987,107.437218 C71.0203357,107.966046 64.4865987,106.716901 59.7607964,103.849523 C54.2686121,100.517478 51.2186099,94.7989286 49.7717335,88.7129442 C48.0913088,81.6460323 49.1355043,73.6726057 53.0992189,67.6388757 C53.2336661,69.781637 57.5349852,70.703365 61.0154166,70.1662691 C70.6728211,68.675365 76.4180436,32.1184491 101.441738,25.5998777 C121.403017,20.3995724 135.651446,29.4743102 136.862131,30.2568033 C138.299428,31.1854765 138.85043,30.796545 140.483286,30.4052984 C146.829392,28.8846292 153.741035,28.1960616 160.187893,29.4782789 C166.528383,30.7396605 172.606255,34.0244119 177.74696,37.856181 C187.273882,44.9574883 195.508524,56.4379129 195.90592,68.6796644 Z'
            id='path2'
          />
          <path
            d='M65.1802189,77.7372986 C67.3631845,76.1045334 80.4065113,75.4786511 82.757829,74.0894494 C83.4916461,73.6553857 84.0610723,73.215719 84.4997781,72.7800074 C84.938814,73.215719 85.5085703,73.6553857 86.2423874,74.0894494 C88.593375,75.4786511 101.636702,76.1045334 103.819667,77.7372986 C106.030032,79.3908276 107.643571,83.1846831 107.466966,86.15095 C107.255041,89.7101408 103.361486,98.2028927 93.6723269,99.1811016 C91.5576925,96.8281927 88.2368647,95.3104528 84.4997781,95.3104528 C80.7633517,95.3104528 77.4421938,96.8281927 75.3275594,99.1811016 C65.6387308,98.2028927 61.7451757,89.7101408 61.5332501,86.15095 C61.3566455,83.1846831 62.9701849,79.3908276 65.1802189,77.7372986 M103.141638,94.9063813 C103.142958,94.9057221 103.144609,94.905063 103.145929,94.9047334 C103.144278,94.905063 103.142958,94.9057221 103.141638,94.9063813 M65.8453747,94.9014375 C65.8493359,94.9030855 65.8565982,94.9057221 65.8618798,94.9076997 C65.8565982,94.9057221 65.8509864,94.9034151 65.8453747,94.9014375 M144.86259,55.9853335 C144.47439,50.0303878 143.277769,44.1519058 142.233986,38.2862777 C141.952739,36.7072349 140.423706,26 139.734783,26 C139.502391,35.1094058 138.701893,44.0803858 137.669664,53.1393651 C137.361018,55.8475668 137.037848,58.5564277 136.825262,61.2741874 C136.653609,63.4695546 136.959614,66.1220564 136.427819,68.2455739 C135.749129,70.9524573 132.348087,73.4783984 129.702978,74.410795 C123.102915,76.7373371 117.597802,67.1077689 111.960977,64.2911336 C104.643272,60.6347152 92.0637391,59.7639895 84.5816434,64.5297918 C76.9361472,59.7639895 64.356614,60.6347152 57.0389092,64.2911336 C51.4024147,67.1077689 45.8969708,76.7373371 39.2972383,74.410795 C36.6521296,73.4783984 33.2504268,70.9524573 32.572397,68.2455739 C32.0402723,66.1220564 32.346277,63.4695546 32.174954,61.2741874 C31.9623682,58.5564277 31.6388681,55.8475668 31.3302226,53.1393651 C30.2983232,44.0803858 29.4974953,35.1094058 29.2654335,26 C28.5761802,26 27.0468169,36.7072349 26.7658999,38.2862777 C25.7221169,44.1519058 24.5258266,50.0303878 24.1376265,55.9853335 C23.738533,62.1047422 24.2148704,68.1674622 25.4695887,74.1632765 C26.0687242,77.0277016 26.7685407,79.8756475 27.518863,82.7041478 C28.352701,85.8467429 27.198994,91.9661516 27.5723395,95.1921317 C28.2787581,101.29572 31.1542781,113.199679 34.3833375,118.45096 C35.9440605,120.989096 37.7734867,122.573742 39.816489,124.619148 C41.7825775,126.58809 42.6038717,129.640049 44.7260985,131.73687 C48.6820428,135.645092 54.4456266,137.971304 60.3656788,138.543134 C65.6773527,143.050212 74.505605,146 84.4997781,146 C94.4946114,146 103.322534,143.050212 108.634538,138.543134 C114.55393,137.971304 120.317843,135.645092 124.274118,131.73687 C126.396015,129.640049 127.217309,126.58809 129.183727,124.619148 C131.2264,122.573742 133.055826,120.989096 134.616879,118.45096 C137.845608,113.199679 140.721458,101.29572 141.427547,95.1921317 C141.800892,91.9661516 140.647185,85.8467429 141.481353,82.7041478 C142.231676,79.8756475 142.931162,77.0277016 143.530628,74.1632765 C144.784686,68.1674622 145.261353,62.1047422 144.86259,55.9853335 Z'
            id='path3'
          />
        </defs>
        <mask id='mask1' fill='white'>
          <use href='#path1' />
        </mask>
        <g id='Mask' />
        <g id='Top/Short-Hair/Shaggy-Mullet' mask='url("#mask1")'>
          <g transform='translate(-1.000000, 0.000000)'>
            <mask id='mask2' fill='white'>
              <use href='#path2' />
            </mask>
            <use
              class='CustomColor'
              stroke='none'
              fill='#1D2633'
              fillRule='evenodd'
              href='#path2'
            />
            <path
              d='M175.126419,166.897818 C175.841424,169.13759 176.874789,171.230601 178.55519,172.685954 C180.17619,174.090053 183.068114,173.745469 185.098621,173.802748 C186.770693,173.850632 188.444623,173.856087 190.114529,173.783655 C190.95366,173.747287 191.327571,174.79771 190.648775,175.281705 C190.518773,175.374442 190.388771,175.462634 190.25846,175.543856 C189.20761,176.198779 188.11838,176.802787 187.008721,177.356184 C184.485135,178.614206 181.821334,179.600077 179.02722,180.090436 C177.110792,180.426519 175.211229,180.489668 173.372596,180.266511 C173.858877,180.986862 174.419563,181.642356 175.071506,182.207788 C176.801481,183.708407 179.887821,183.340135 182.054832,183.401352 C183.839313,183.452528 185.625776,183.458358 187.407944,183.380946 C188.303488,183.342078 188.702535,184.464709 187.978106,184.981974 C187.839364,185.081086 187.700623,185.175341 187.561551,185.262145 C186.440057,185.962089 185.2776,186.607617 184.093342,187.199055 C181.400104,188.543555 178.557223,189.597195 175.57527,190.121262 C170.075488,191.087126 164.705859,189.943766 160.380755,186.413279 C159.16361,185.419765 158.027363,184.287616 157,183.053001 L157,180.610951 C163.949635,177.309539 170.111406,172.618864 175.126419,166.897818 Z M81.3150549,151.593977 C80.572738,153.13892 79.8051751,154.672522 79.0058562,156.190972 C74.2106831,165.300379 68.2421528,176.792949 56.4993303,177.596328 C55.4105393,177.670743 54.9804404,178.942941 55.8287461,179.588187 C66.9485528,188.041497 92.2609618,193.18734 101.273548,191.569729 C104.095212,191.063278 106.638877,190.402091 109,189.610443 L109,180.610951 C96.5625107,174.702544 86.6484598,164.344483 81.3150549,151.593977 Z'
              id='Shadow'
              stroke='none'
              opacity='0.16'
              fill='#000000'
              fillRule='evenodd'
            />
          </g>
        </g>
      </g>
</svg>

<svg width="280" height="280" xmlns="http://www.w3.org/2000/svg"><defs><path id="a" d="M0 0h264v280H0z"/><path d="M175.126 166.898c.715 2.24 1.749 4.333 3.43 5.788 1.62 1.404 4.512 1.06 6.543 1.117 1.672.048 3.346.053 5.016-.02.839-.036 1.213 1.015.534 1.499-.13.092-.26.18-.39.262a39.362 39.362 0 01-3.25 1.812c-2.524 1.258-5.188 2.244-7.982 2.734-1.916.337-3.816.4-5.654.177a9.828 9.828 0 001.699 1.94c1.73 1.501 4.816 1.133 6.983 1.194 1.784.052 3.57.057 5.353-.02.895-.039 1.295 1.084.57 1.601a8.08 8.08 0 01-.416.28 41.99 41.99 0 01-3.469 1.937c-2.693 1.345-5.536 2.398-8.518 2.922-5.5.966-10.87-.177-15.194-3.708a24.905 24.905 0 01-3.381-3.36v-2.442a56.187 56.187 0 0018.126-13.713zm-93.81-15.304a140.419 140.419 0 01-2.31 4.597c-4.795 9.11-10.764 20.602-22.507 21.405-1.088.075-1.519 1.347-.67 1.992 11.12 8.453 36.432 13.6 45.445 11.982a54.359 54.359 0 007.726-1.96v-8.999a56.208 56.208 0 01-27.685-29.017zm114.59-82.914c.175 5.507-.617 11.227-1.721 16.616-.995 4.852-4.315 8.675-5.348 13.433-4.027-13.68-19.404-18.245-28.595-27.574 1.997 3.793 5.049 6.948 7.052 10.678-9.247-5.665-18.206-13.88-22.032-24.295-.707 5.398-2.716 10.39-6.108 14.666-3.011 3.796-7.582 7.87-12.295 9.34 2.428-5.507 4.502-11.217 6.407-16.925-2.016 2.617-8.697 13.734-10.375 16.49-1.656 2.72-3.513 5.317-5.507 7.803-.933 1.163-1.929 2.287-2.93 3.391a67.183 67.183 0 01-1.788 1.895c-.215.219-1.842 2.01-.912.806-2.216 2.802-5.478 4.979-8.31 7.109-2.853 2.144-5.96 3.968-9.192 5.476-7.159 3.343-14.512 4.56-22.32 3.163 1.196.299 3.721-.846 4.957-1.182 1.809-.492 3.474-1.117 5.113-2.024a53.85 53.85 0 009.176-6.418c-2.707 1.152-4.905 3.334-7.664 4.543-2.287 1.003-4.547 1.526-7.032 1.766-5.462.529-11.995-.72-16.721-3.587-5.492-3.333-8.542-9.051-9.99-15.137-1.68-7.067-.635-15.04 3.328-21.074.135 2.143 4.436 3.064 7.916 2.527 9.658-1.49 15.403-38.048 40.427-44.566 19.961-5.2 34.21 3.874 35.42 4.657 1.437.928 1.988.54 3.621.148 6.346-1.52 13.258-2.209 19.705-.927 6.34 1.262 12.418 4.546 17.559 8.378 9.527 7.101 17.762 18.582 18.159 30.824z" id="c"/></defs><mask id="b" fill="#fff"><use href="#a"/></mask><g mask="url(&quot;#b&quot;)"><g transform="translate(-1)"><use class="CustomColor" fill="#1D2633" href="#c"/><path d="M175.126 166.898c.715 2.24 1.749 4.333 3.43 5.788 1.62 1.404 4.512 1.06 6.543 1.117 1.672.048 3.346.053 5.016-.02.839-.036 1.213 1.015.534 1.499-.13.092-.26.18-.39.262a39.362 39.362 0 01-3.25 1.812c-2.524 1.258-5.188 2.244-7.982 2.734-1.916.337-3.816.4-5.654.177a9.828 9.828 0 001.699 1.94c1.73 1.501 4.816 1.133 6.983 1.194 1.784.052 3.57.057 5.353-.02.895-.039 1.295 1.084.57 1.601a8.08 8.08 0 01-.416.28 41.99 41.99 0 01-3.469 1.937c-2.693 1.345-5.536 2.398-8.518 2.922-5.5.966-10.87-.177-15.194-3.708a24.905 24.905 0 01-3.381-3.36v-2.442a56.187 56.187 0 0018.126-13.713zm-93.81-15.304a140.419 140.419 0 01-2.31 4.597c-4.795 9.11-10.764 20.602-22.507 21.405-1.088.075-1.519 1.347-.67 1.992 11.12 8.453 36.432 13.6 45.445 11.982a54.359 54.359 0 007.726-1.96v-8.999a56.208 56.208 0 01-27.685-29.017z" opacity=".16"/></g></g></svg>
